assets/Ladder/Flat/ladder_flat.svg

<svg width="32" height="32" viewBox="0 0 32 32" fill="none" xmlns="http://www.w3.org/2000/svg">
<path d="M13.9722 3.06962L7.11285 29.0903C6.97408 29.6301 6.48837 30 5.9432 30H2.85056C2.28556 30 1.88907 29.4702 2.02784 28.9304L8.88715 2.90968C9.02592 2.37986 9.51163 2 10.0667 2H13.1494C13.7144 2 14.1109 2.52981 13.9722 3.06962Z" fill="#7D4533"/>
<path d="M29.9726 3.06962L23.1187 29.0903C22.9702 29.6301 22.4947 30 21.9401 30H18.8499C18.2853 30 17.8892 29.4702 18.0278 28.9304L18.27 28.0109L17.3715 26.4623L19.0645 24.9947L20.1199 20.9878L19.2154 19.4619L20.9024 18.017L21.9639 13.9871L21.0599 12.4594L22.7474 11.0127L23.8146 6.9612L22.908 5.44292L24.593 4.0057L24.8817 2.90968C25.0204 2.37986 25.5057 2 26.0604 2H29.1506C29.7052 2 30.1113 2.52981 29.9726 3.06962Z" fill="#7D4533"/>
<path d="M19.0631 25L18.2729 28H5.54632C5.1809 28 4.91163 27.6288 5.02703 27.2575L5.56556 25.4615C5.65211 25.1806 5.89252 25 6.1714 25H19.0631Z" fill="#A56953"/>
<path d="M20.9069 18L20.1167 21H7.08312C6.69308 21 6.40568 20.6288 6.52885 20.2575L7.10365 18.4615C7.19603 18.1806 7.45263 18 7.7503 18H20.9069Z" fill="#A56953"/>
<path d="M23.8043 7L24.5945 4H11.24C10.9424 4 10.6858 4.18 10.5934 4.46L10.0289 6.26C9.90568 6.63 10.1931 7 10.5831 7H23.8043Z" fill="#A56953"/>
<path d="M22.7507 11H9.2503C8.95263 11 8.69603 11.1806 8.60365 11.4615L8.02885 13.2575C7.90568 13.6288 8.19308 14 8.58312 14H21.9605L22.7507 11Z" fill="#A56953"/>
</svg>

<svg xmlns="http://www.w3.org/2000/svg" width="32" height="32" fill="none"><path fill="#7D4533" d="m13.972 3.07-6.86 26.02a1.21 1.21 0 0 1-1.169.91H2.851a.85.85 0 0 1-.823-1.07l6.86-26.02c.138-.53.624-.91 1.179-.91h3.082a.85.85 0 0 1 .823 1.07ZM29.973 3.07l-6.854 26.02a1.22 1.22 0 0 1-1.179.91h-3.09a.85.85 0 0 1-.822-1.07l.242-.92-.898-1.548 1.692-1.467 1.056-4.007-.905-1.526 1.687-1.445 1.062-4.03-.904-1.528 1.687-1.446 1.068-4.052-.907-1.518 1.685-1.437.289-1.096c.138-.53.624-.91 1.178-.91h3.09c.555 0 .961.53.823 1.07Z"/><path fill="#A56953" d="m19.063 25-.79 3H5.546c-.365 0-.634-.371-.519-.742l.539-1.796A.632.632 0 0 1 6.17 25h12.892ZM20.907 18l-.79 3H7.083c-.39 0-.677-.371-.554-.742l.575-1.796A.67.67 0 0 1 7.75 18h13.157ZM23.804 7l.79-3H11.24a.67.67 0 0 0-.647.46l-.564 1.8c-.123.37.164.74.554.74h13.221ZM22.75 11H9.25a.67.67 0 0 0-.646.461l-.575 1.796c-.123.372.164.743.554.743H21.96l.79-3Z"/></svg>
